!!!SOCIAL_FUNCTION:	songs of games played in a ceremonial manner
!!!PDT:	1932
!!!OTL: No_2_Song_of_Osawapunoke.krn
!!!REG: Wisconsin
!!!LANG: Non-Tone
!!!LING_GROUP: Algonquin
**kern
*staff1
=1-
*clefF4
*k[f#]
*M2/4
4r
8B\L
8B\J
=2
8.c\L
16c\Jk
4c\
=3||
*M3/4
2B\
8B\L
8B\J
=4||
*M2/4
8.A\L
16G\Jk
4E\
=5||
*M3/4
4E\
8E\
16r
16B\
4B\
=6||
*M2/4
8.B\L
16A\Jk
4G\
=7||
*M3/4
2A\
4A\
=8||
*M2/4
8.G\L
16E\Jk
4E\
=9||
*M3/4
4E\
8E\
16r
16G\
4G\
=10||
*M2/4
8.G\L
16G\Jk
4E\
=11||
*M3/4
4E\
8E\
8r
8E/L
8C/J
=12||
*M2/4
4BB/
8BB/L
8AA/J
=13||
*M3/4
2BB/
8BB/L
8GG/J
=14
2EE/
4r
==
*-
